build/img/icon-product-a.svg

<svg width="42" height="28" viewBox="0 0 42 28" fill="none" xmlns="http://www.w3.org/2000/svg">
<path d="M33.985 6.58858H38.6549C38.8015 6.58822 38.9466 6.61682 39.082 6.67273C39.2174 6.72865 39.3405 6.81078 39.4441 6.91439C39.5478 7.01802 39.6298 7.14109 39.6857 7.27654C39.7417 7.41198 39.7701 7.55714 39.7698 7.70367L39.7679 19.2756C39.7684 19.4222 39.7398 19.5674 39.6838 19.7029C39.628 19.8385 39.5459 19.9615 39.4421 20.0651C39.3386 20.1687 39.2155 20.2509 39.0799 20.3068C38.9444 20.3626 38.7992 20.3912 38.6526 20.3907H33.983V22.6209L38.6571 22.6168C39.5436 22.6166 40.3939 22.2643 41.0208 21.6375C41.6475 21.0106 41.9998 20.1604 42 19.2739V7.70351C42.0002 7.26476 41.9139 6.83028 41.746 6.42489C41.5782 6.01952 41.332 5.65117 41.0217 5.34092C40.7115 5.03067 40.3432 4.7846 39.9378 4.61675C39.5324 4.44891 39.098 4.36258 38.6592 4.3627L33.983 4.36063L33.985 6.58858Z" fill="#454EEC"/>
<path d="M32.0921 5.64372L32.09 3.13508C32.0938 1.29364 30.5946 0 28.7492 0H13.2555C11.4077 0 9.90623 1.41609 9.90814 3.25992L9.90974 4.98739H9.90814L9.91022 7.7585C9.90778 8.65056 10.2572 9.5076 10.8826 10.1437C11.508 10.7798 12.3591 11.1436 13.251 11.1562H28.7447C30.5924 11.1562 32.0938 9.47782 32.0919 7.63366L32.0905 5.64372H32.0921ZM29.8595 7.71998C29.8603 7.86686 29.8323 8.01247 29.7767 8.14848C29.7212 8.28449 29.6395 8.40822 29.5361 8.5126C29.4328 8.61698 29.3099 8.69994 29.1744 8.75676C29.039 8.81357 28.8937 8.84311 28.7468 8.8437L13.251 8.85138C12.6375 8.8469 12.1407 8.21199 12.1359 7.59833V5.64372H12.138L12.1404 3.07386C12.1377 2.45813 12.6369 2.02926 13.2531 2.03166L28.7488 2.06443C29.0434 2.06572 29.3256 2.183 29.5343 2.39088C29.7431 2.59875 29.8615 2.88048 29.8639 3.17504V4.98739H29.8619L29.8595 7.71998Z" fill="#454EEC"/>
<path d="M28.0223 4.3584H13.9958V6.59482H28.0223V4.3584Z" fill="#454EEC"/>
<path d="M28.0306 20.4133H14.004V22.6497H28.0306V20.4133Z" fill="#454EEC"/>
<path d="M32.1178 21.9187L32.1155 19.2788C32.1195 17.4372 30.6203 16.0124 28.7747 16.0124H13.2811C12.8427 16.0103 12.4083 16.0947 12.0026 16.2608C11.597 16.4269 11.2281 16.6714 10.9172 16.9804C10.6062 17.2894 10.3593 17.6567 10.1906 18.0611C10.0218 18.4657 9.9346 18.8997 9.93387 19.338L9.93531 21.1312H9.93387L9.93595 23.771C9.93195 25.6125 11.4313 27.0373 13.2768 27.0373H28.7704C29.2087 27.0394 29.643 26.955 30.0487 26.7891C30.4542 26.623 30.8232 26.3785 31.1341 26.0696C31.4451 25.7608 31.6921 25.3936 31.8609 24.9891C32.0295 24.5846 32.117 24.1508 32.1178 23.7125L32.1162 21.9194L32.1178 21.9187ZM29.8852 23.7947C29.8853 23.9398 29.8566 24.0834 29.8005 24.2172C29.7442 24.351 29.6619 24.4721 29.5583 24.5736C29.4546 24.6751 29.3316 24.7549 29.1967 24.8081C29.0618 24.8613 28.9175 24.8872 28.7725 24.8839L13.2768 24.8743C12.9806 24.8692 12.6982 24.7483 12.4898 24.5378C12.2815 24.3273 12.1637 24.0436 12.1617 23.7474V21.9187H12.1639L12.1663 19.2143C12.1657 19.0682 12.1941 18.9233 12.2498 18.7883C12.3056 18.653 12.3876 18.5304 12.4911 18.4272C12.5945 18.3241 12.7175 18.2424 12.8527 18.1869C12.988 18.1316 13.1328 18.1036 13.279 18.1046L28.7747 18.1038C29.0744 18.1169 29.3577 18.2451 29.5653 18.4617C29.773 18.6783 29.8892 18.9667 29.8897 19.2667V21.1312H29.8876L29.8852 23.7947Z" fill="#454EEC"/>
<path d="M8.01522 20.3927H3.34528C3.19877 20.393 3.05361 20.3645 2.91817 20.3086C2.78273 20.2526 2.65967 20.1706 2.55605 20.0669C2.45246 19.9633 2.37034 19.8402 2.31444 19.7048C2.25855 19.5694 2.22996 19.4243 2.23035 19.2777L2.23243 7.70479C2.23198 7.55824 2.26053 7.41303 2.31641 7.27755C2.37229 7.14205 2.45441 7.01895 2.55804 6.91532C2.66168 6.81167 2.78478 6.72956 2.92027 6.67368C3.05575 6.6178 3.20096 6.58925 3.34752 6.58969H8.01714V4.36063L3.34289 4.36478C2.45636 4.36501 1.60621 4.71726 0.979342 5.34413C0.352475 5.97099 0.000211879 6.82115 0 7.70767V19.2777C0 20.1638 0.35198 21.0135 0.978502 21.6401C1.60503 22.2665 2.45477 22.6185 3.34081 22.6185L8.01698 22.6206L8.01522 20.3927Z" fill="#454EEC"/>
</svg>

<svg width="42" height="28" fill="none" xmlns="http://www.w3.org/2000/svg"><path d="M33.985 6.589h4.67a1.112 1.112 0 011.115 1.115l-.002 11.572a1.109 1.109 0 01-.688 1.03 1.1 1.1 0 01-.427.085h-4.67v2.23l4.674-.004A3.344 3.344 0 0042 19.274V7.704a3.337 3.337 0 00-3.34-3.341l-4.677-.002.002 2.228zm-1.893-.945l-.002-2.509C32.094 1.294 30.595 0 28.75 0H13.254c-1.847 0-3.349 1.416-3.347 3.26l.002 1.727h-.002l.002 2.771a3.389 3.389 0 003.341 3.398h15.494c1.847 0 3.349-1.678 3.347-3.522l-.002-1.99h.002zM29.86 7.72a1.116 1.116 0 01-1.113 1.124L13.25 8.85c-.614-.004-1.11-.639-1.115-1.253V5.644h.002l.002-2.57c-.002-.616.497-1.045 1.113-1.042l15.496.032a1.12 1.12 0 011.115 1.111v1.812h-.002L29.86 7.72z" fill="#454EEC"/><path d="M28.022 4.358H13.996v2.237h14.026V4.358zm.008 16.055H14.005v2.237h14.027v-2.237z" fill="#454EEC"/><path d="M32.118 21.919l-.003-2.64c.005-1.842-1.495-3.267-3.34-3.267H13.28a3.332 3.332 0 00-3.347 3.326l.001 1.793h-.001l.002 2.64c-.004 1.841 1.495 3.266 3.34 3.266H28.77a3.335 3.335 0 003.09-2.048 3.31 3.31 0 00.258-1.277l-.002-1.793h.002zm-2.233 1.876a1.09 1.09 0 01-1.113 1.089l-15.495-.01a1.135 1.135 0 01-1.115-1.127V21.92h.002l.002-2.705a1.105 1.105 0 011.113-1.11h15.496a1.166 1.166 0 011.115 1.163v1.864h-.002l-.003 2.664zm-21.87-3.402h-4.67a1.113 1.113 0 01-1.115-1.115l.002-11.573A1.112 1.112 0 013.348 6.59h4.67V4.36l-4.675.005A3.344 3.344 0 000 7.708v11.57a3.341 3.341 0 003.34 3.34l4.677.003-.002-2.228z" fill="#454EEC"/></svg>
